X:1
T:Julia Delaney
L:1/8
M:6/4
I:linebreak $
K:F
V:1 treble
V:1
"Dm" dcAG F2 DF |"C" E2 CE F"Dm"ED^c | dcAG F2 DF | "Am"Add^c d"Dm"efe |$
 "Dm"dcAG F2 DF | "C" E2 CE F"Dm"ED^c | dcAG FDDF | "Am"Add^c "Dm"d4 ::$
"Dm" f2 fe fagf |"C" ecgc acgc |"Dm" fede fagf |  "Am"ed^ce "Dm"d2 de |$
 "Dm"f2 fe fagf | "C"ecgc acgc | "Dm"fede fdcA |1 "Am"Add^c d2 "Dm"de :|2 "Am"Add^c "Dm"d4 |]
